X: 35946
T: Sarah Ann O'Connor's
R: jig
M: 6/8
K: Gmajor
|:BAB GED|E2G G2 B/c/|dBd GBd|e2A A2 B/c/|
ded B2A|BAG Adc|BAB GED|1 E2G G2A:|2 E2G G2 B||
|:d^cd GBd|ede A3|d^cd efg|fd^c d2 e/f/|
gag fed|BAG A3|BAB GED|1 E2 G G2 B:|2 E2 G G2 A||

